src/bright/hiso font bright_e.svg

<svg xmlns="http://www.w3.org/2000/svg" width="90" height="126" viewBox="0 0 90 126"><path fill="#000101" d="M36 45l36-18-36-18-36 18v72l36 18 36-18-36-18 36-18-36-18zm29.293 54l-29.293 14.646v-29.292l29.293 14.646zm-29.293-50.646l29.293 14.646-29.293 14.646v-29.292z"/></svg>

<svg xmlns="http://www.w3.org/2000/svg" width="90" height="126"><path fill="#000101" d="M36 45l36-18L36 9 0 27v72l36 18 36-18-36-18 36-18-36-18zm29.293 54L36 113.646V84.354L65.293 99zM36 48.354L65.293 63 36 77.646V48.354z"/></svg>
